svg/color/bcnt.svg

<?xml version="1.0" encoding="UTF-8" ?>
<!DOCTYPE svg PUBLIC "-//W3C//DTD SVG 1.1//EN" "http://www.w3.org/Graphics/SVG/1.1/DTD/svg11.dtd">
<svg width="250pt" height="250pt" viewBox="0 0 250 250" version="1.1" xmlns="http://www.w3.org/2000/svg">
<g id="#073041ff">
<path fill="#073041" opacity="1.00" d=" M 0.00 0.00 L 250.00 0.00 L 250.00 250.00 L 0.00 250.00 L 0.00 0.00 M 60.37 40.15 C 59.92 48.39 60.04 56.67 60.22 64.91 C 60.10 66.84 62.06 67.65 63.37 68.61 C 74.80 75.51 86.21 82.47 97.67 89.33 C 86.01 96.05 74.60 103.18 63.05 110.09 C 61.66 111.02 59.70 111.96 60.13 113.98 C 60.19 121.89 59.86 129.83 60.29 137.73 C 63.20 140.63 67.18 142.16 70.58 144.41 C 79.39 149.95 88.58 154.91 97.13 160.83 C 85.80 168.01 74.18 174.73 62.77 181.79 C 61.60 182.60 60.08 183.42 60.22 185.09 C 59.96 192.38 60.13 199.69 60.13 206.98 C 59.97 208.47 61.04 209.57 61.84 210.68 C 63.79 209.70 65.73 208.71 67.60 207.58 C 86.22 196.21 104.93 184.99 123.56 173.64 C 123.61 165.24 123.91 156.80 123.46 148.41 C 121.51 145.94 118.41 144.81 115.84 143.13 C 105.92 137.06 95.88 131.17 86.03 125.00 C 97.77 117.68 109.70 110.64 121.52 103.46 C 122.76 102.71 123.88 101.55 123.63 99.98 C 123.69 92.09 123.71 84.21 123.56 76.33 C 105.93 65.65 88.28 55.02 70.68 44.31 C 67.48 42.42 64.36 39.64 60.37 40.15 M 139.43 76.33 C 138.35 78.74 138.77 81.45 138.68 84.00 C 138.81 89.34 138.52 94.70 138.78 100.04 C 138.74 101.96 140.36 103.22 141.82 104.14 C 153.11 111.11 164.76 117.53 175.72 125.00 C 166.02 131.71 155.56 137.27 145.58 143.57 C 143.11 145.35 139.09 146.43 138.78 149.96 C 138.55 156.32 138.77 162.69 138.68 169.05 C 138.75 171.10 138.55 174.01 141.05 174.71 C 145.12 173.21 148.51 170.40 152.24 168.24 C 167.85 158.87 183.37 149.36 198.99 140.01 C 200.38 139.02 202.46 138.05 202.40 136.06 C 202.51 128.69 202.51 121.31 202.40 113.94 C 202.44 111.96 200.35 111.00 198.98 110.00 C 180.91 99.10 162.83 88.21 144.82 77.20 C 143.15 76.42 141.10 74.51 139.43 76.33 Z" />
<path fill="#073041" opacity="1.00" d=" M 64.43 46.09 C 81.56 56.13 98.29 66.85 115.51 76.73 C 115.55 77.17 115.62 78.04 115.65 78.47 C 111.01 80.98 106.60 83.88 102.00 86.44 C 89.44 78.90 76.85 71.42 64.42 63.68 C 64.39 57.81 64.37 51.95 64.43 46.09 Z" />
<path fill="#073041" opacity="1.00" d=" M 106.36 89.35 C 110.38 86.80 114.46 84.33 118.63 82.03 C 118.76 86.78 118.77 91.52 118.63 96.27 C 114.34 94.32 110.49 91.58 106.36 89.35 Z" />
<path fill="#073041" opacity="1.00" d=" M 143.51 82.08 C 158.73 90.87 173.58 100.30 188.71 109.25 C 190.99 110.46 193.14 111.89 195.11 113.57 C 190.79 116.03 186.71 118.88 182.36 121.28 C 180.52 122.46 178.61 120.81 176.99 120.02 C 165.87 113.12 154.57 106.53 143.49 99.57 C 143.48 93.74 143.44 87.91 143.51 82.08 Z" />
<path fill="#073041" opacity="1.00" d=" M 67.18 113.21 C 78.71 106.09 90.22 98.91 102.01 92.24 C 106.90 94.86 111.71 97.63 116.22 100.88 C 107.15 107.08 97.45 112.28 88.20 118.19 C 85.91 119.49 83.72 121.25 81.07 121.72 C 76.11 119.53 71.48 116.52 67.18 113.21 Z" />
<path fill="#073041" opacity="1.00" d=" M 64.62 117.98 C 68.82 119.75 72.67 122.24 76.28 125.00 C 72.67 127.76 68.83 130.25 64.62 132.01 C 64.58 127.34 64.58 122.66 64.62 117.98 Z" />
<path fill="#073041" opacity="1.00" d=" M 186.50 124.40 C 189.87 121.80 193.67 119.80 197.51 117.98 C 197.59 122.67 197.59 127.36 197.51 132.04 C 193.66 130.15 189.89 128.08 186.42 125.56 C 186.44 125.27 186.48 124.69 186.50 124.40 Z" />
<path fill="#073041" opacity="1.00" d=" M 67.18 136.79 C 71.47 133.47 76.11 130.47 81.07 128.28 C 83.72 128.75 85.90 130.51 88.20 131.81 C 97.45 137.73 107.16 142.91 116.21 149.13 C 111.70 152.36 106.89 155.15 102.01 157.76 C 90.22 151.08 78.71 143.90 67.18 136.79 Z" />
<path fill="#073041" opacity="1.00" d=" M 175.14 131.09 C 177.01 130.02 178.83 128.67 180.99 128.24 C 186.05 130.26 190.38 133.77 195.11 136.45 C 191.76 139.53 187.45 141.21 183.70 143.73 C 170.29 151.77 157.05 160.11 143.51 167.92 C 143.44 162.09 143.48 156.26 143.48 150.43 C 153.97 143.88 164.65 137.64 175.14 131.09 Z" />
<path fill="#073041" opacity="1.00" d=" M 106.94 160.76 C 110.62 158.08 114.46 155.59 118.63 153.75 C 118.77 158.49 118.77 163.24 118.62 167.98 C 114.62 165.76 110.69 163.39 106.94 160.76 Z" />
<path fill="#073041" opacity="1.00" d=" M 64.43 186.32 C 76.87 178.59 89.44 171.09 102.00 163.56 C 106.61 166.12 111.01 169.03 115.65 171.53 C 115.62 171.96 115.55 172.83 115.52 173.27 C 98.30 183.16 81.56 193.87 64.43 203.91 C 64.38 198.05 64.39 192.18 64.43 186.32 Z" />
</g>
<g id="#f5821fff">
<path fill="#f5821f" opacity="1.00" d=" M 60.37 40.15 C 64.36 39.64 67.48 42.42 70.68 44.31 C 88.28 55.02 105.93 65.65 123.56 76.33 C 123.71 84.21 123.69 92.09 123.63 99.98 C 123.88 101.55 122.76 102.71 121.52 103.46 C 109.70 110.64 97.77 117.68 86.03 125.00 C 95.88 131.17 105.92 137.06 115.84 143.13 C 118.41 144.81 121.51 145.94 123.46 148.41 C 123.91 156.80 123.61 165.24 123.56 173.64 C 104.93 184.99 86.22 196.21 67.60 207.58 C 65.73 208.71 63.79 209.70 61.84 210.68 C 61.04 209.57 59.97 208.47 60.13 206.98 C 60.13 199.69 59.96 192.38 60.22 185.09 C 60.08 183.42 61.60 182.60 62.77 181.79 C 74.18 174.73 85.80 168.01 97.13 160.83 C 88.58 154.91 79.39 149.95 70.58 144.41 C 67.18 142.16 63.20 140.63 60.29 137.73 C 59.86 129.83 60.19 121.89 60.13 113.98 C 59.70 111.96 61.66 111.02 63.05 110.09 C 74.60 103.18 86.01 96.05 97.67 89.33 C 86.21 82.47 74.80 75.51 63.37 68.61 C 62.06 67.65 60.10 66.84 60.22 64.91 C 60.04 56.67 59.92 48.39 60.37 40.15 M 64.43 46.09 C 64.37 51.95 64.39 57.81 64.42 63.68 C 76.85 71.42 89.44 78.90 102.00 86.44 C 106.60 83.88 111.01 80.98 115.65 78.47 C 115.62 78.04 115.55 77.17 115.51 76.73 C 98.29 66.85 81.56 56.13 64.43 46.09 M 106.36 89.35 C 110.49 91.58 114.34 94.32 118.63 96.27 C 118.77 91.52 118.76 86.78 118.63 82.03 C 114.46 84.33 110.38 86.80 106.36 89.35 M 67.18 113.21 C 71.48 116.52 76.11 119.53 81.07 121.72 C 83.72 121.25 85.91 119.49 88.20 118.19 C 97.45 112.28 107.15 107.08 116.22 100.88 C 111.71 97.63 106.90 94.86 102.01 92.24 C 90.22 98.91 78.71 106.09 67.18 113.21 M 64.62 117.98 C 64.58 122.66 64.58 127.34 64.62 132.01 C 68.83 130.25 72.67 127.76 76.28 125.00 C 72.67 122.24 68.82 119.75 64.62 117.98 M 67.18 136.79 C 78.71 143.90 90.22 151.08 102.01 157.76 C 106.89 155.15 111.70 152.36 116.21 149.13 C 107.16 142.91 97.45 137.73 88.20 131.81 C 85.90 130.51 83.72 128.75 81.07 128.28 C 76.11 130.47 71.47 133.47 67.18 136.79 M 106.94 160.76 C 110.69 163.39 114.62 165.76 118.62 167.98 C 118.77 163.24 118.77 158.49 118.63 153.75 C 114.46 155.59 110.62 158.08 106.94 160.76 M 64.43 186.32 C 64.39 192.18 64.38 198.05 64.43 203.91 C 81.56 193.87 98.30 183.16 115.52 173.27 C 115.55 172.83 115.62 171.96 115.65 171.53 C 111.01 169.03 106.61 166.12 102.00 163.56 C 89.44 171.09 76.87 178.59 64.43 186.32 Z" />
<path fill="#f5821f" opacity="1.00" d=" M 139.43 76.33 C 141.10 74.51 143.15 76.42 144.82 77.20 C 162.83 88.21 180.91 99.10 198.98 110.00 C 200.35 111.00 202.44 111.96 202.40 113.94 C 202.51 121.31 202.51 128.69 202.40 136.06 C 202.46 138.05 200.38 139.02 198.99 140.01 C 183.37 149.36 167.85 158.87 152.24 168.24 C 148.51 170.40 145.12 173.21 141.05 174.71 C 138.55 174.01 138.75 171.10 138.68 169.05 C 138.77 162.69 138.55 156.32 138.78 149.96 C 139.09 146.43 143.11 145.35 145.58 143.57 C 155.56 137.27 166.02 131.71 175.72 125.00 C 164.76 117.53 153.11 111.11 141.82 104.14 C 140.36 103.22 138.74 101.96 138.78 100.04 C 138.52 94.70 138.81 89.34 138.68 84.00 C 138.77 81.45 138.35 78.74 139.43 76.33 M 143.51 82.08 C 143.44 87.91 143.48 93.74 143.49 99.57 C 154.57 106.53 165.87 113.12 176.99 120.02 C 178.61 120.81 180.52 122.46 182.36 121.28 C 186.71 118.88 190.79 116.03 195.11 113.57 C 193.14 111.89 190.99 110.46 188.71 109.25 C 173.58 100.30 158.73 90.87 143.51 82.08 M 186.50 124.40 C 186.48 124.69 186.44 125.27 186.42 125.56 C 189.89 128.08 193.66 130.15 197.51 132.04 C 197.59 127.36 197.59 122.67 197.51 117.98 C 193.67 119.80 189.87 121.80 186.50 124.40 M 175.14 131.09 C 164.65 137.64 153.97 143.88 143.48 150.43 C 143.48 156.26 143.44 162.09 143.51 167.92 C 157.05 160.11 170.29 151.77 183.70 143.73 C 187.45 141.21 191.76 139.53 195.11 136.45 C 190.38 133.77 186.05 130.26 180.99 128.24 C 178.83 128.67 177.01 130.02 175.14 131.09 Z" />
</g>
</svg>

<?xml version="1.0" encoding="utf-8"?>
<!-- Generator: Adobe Illustrator 26.0.3, SVG Export Plug-In . SVG Version: 6.00 Build 0)  -->
<svg version="1.1" id="Layer_1" xmlns="http://www.w3.org/2000/svg" xmlns:xlink="http://www.w3.org/1999/xlink" x="0px" y="0px"
	 viewBox="0 0 250 250" style="enable-background:new 0 0 250 250;" xml:space="preserve">
<style type="text/css">
	.st0{fill:#073041;}
	.st1{fill:#F5821F;}
</style>
<circle class="st0" cx="125" cy="125.5" r="125"/>
<g id="_x23_073041ff">
	<path class="st0" d="M64.4,46.1c17.1,10,33.9,20.8,51.1,30.6c0,0.4,0.1,1.3,0.1,1.7c-4.6,2.5-9.1,5.4-13.7,8
		c-12.6-7.5-25.2-15-37.6-22.8C64.4,57.8,64.4,52,64.4,46.1z"/>
	<path class="st0" d="M106.4,89.3c4-2.5,8.1-5,12.3-7.3c0.1,4.8,0.1,9.5,0,14.2C114.3,94.3,110.5,91.6,106.4,89.3z"/>
	<path class="st0" d="M143.5,82.1c15.2,8.8,30.1,18.2,45.2,27.2c2.3,1.2,4.4,2.6,6.4,4.3c-4.3,2.5-8.4,5.3-12.8,7.7
		c-1.8,1.2-3.8-0.5-5.4-1.3c-11.1-6.9-22.4-13.5-33.5-20.4C143.5,93.7,143.4,87.9,143.5,82.1z"/>
	<path class="st0" d="M67.2,113.2c11.5-7.1,23-14.3,34.8-21c4.9,2.6,9.7,5.4,14.2,8.6c-9.1,6.2-18.8,11.4-28,17.3
		c-2.3,1.3-4.5,3.1-7.1,3.5C76.1,119.5,71.5,116.5,67.2,113.2z"/>
	<path class="st0" d="M64.6,118c4.2,1.8,8,4.3,11.7,7c-3.6,2.8-7.4,5.2-11.7,7C64.6,127.3,64.6,122.7,64.6,118z"/>
	<path class="st0" d="M186.5,124.4c3.4-2.6,7.2-4.6,11-6.4c0.1,4.7,0.1,9.4,0,14.1c-3.8-1.9-7.6-4-11.1-6.5
		C186.4,125.3,186.5,124.7,186.5,124.4z"/>
	<path class="st0" d="M67.2,136.8c4.3-3.3,8.9-6.3,13.9-8.5c2.7,0.5,4.8,2.2,7.1,3.5c9.2,5.9,19,11.1,28,17.3
		c-4.5,3.2-9.3,6-14.2,8.6C90.2,151.1,78.7,143.9,67.2,136.8z"/>
	<path class="st0" d="M175.1,131.1c1.9-1.1,3.7-2.4,5.9-2.8c5.1,2,9.4,5.5,14.1,8.2c-3.4,3.1-7.7,4.8-11.4,7.3
		c-13.4,8-26.6,16.4-40.2,24.2c-0.1-5.8,0-11.7,0-17.5C154,143.9,164.6,137.6,175.1,131.1z"/>
	<path class="st0" d="M106.9,160.8c3.7-2.7,7.5-5.2,11.7-7c0.1,4.7,0.1,9.5,0,14.2C114.6,165.8,110.7,163.4,106.9,160.8z"/>
	<path class="st0" d="M64.4,186.3c12.4-7.7,25-15.2,37.6-22.8c4.6,2.6,9,5.5,13.7,8c0,0.4-0.1,1.3-0.1,1.7
		c-17.2,9.9-34,20.6-51.1,30.6C64.4,198.1,64.4,192.2,64.4,186.3z"/>
</g>
<g id="_x23_f5821fff">
	<path class="st1" d="M60.4,40.2c4-0.5,7.1,2.3,10.3,4.2c17.6,10.7,35.2,21.3,52.9,32c0.2,7.9,0.1,15.8,0.1,23.7
		c0.2,1.6-0.9,2.7-2.1,3.5c-11.8,7.2-23.8,14.2-35.5,21.5c9.8,6.2,19.9,12.1,29.8,18.1c2.6,1.7,5.7,2.8,7.6,5.3
		c0.5,8.4,0.2,16.8,0.1,25.2c-18.6,11.4-37.3,22.6-56,33.9c-1.9,1.1-3.8,2.1-5.8,3.1c-0.8-1.1-1.9-2.2-1.7-3.7
		c0-7.3-0.2-14.6,0.1-21.9c-0.1-1.7,1.4-2.5,2.5-3.3c11.4-7.1,23-13.8,34.4-21c-8.5-5.9-17.7-10.9-26.5-16.4
		c-3.4-2.2-7.4-3.8-10.3-6.7c-0.4-7.9-0.1-15.8-0.2-23.7c-0.4-2,1.5-3,2.9-3.9c11.5-6.9,23-14,34.6-20.8
		c-11.5-6.9-22.9-13.8-34.3-20.7c-1.3-1-3.3-1.8-3.1-3.7C60,56.7,59.9,48.4,60.4,40.2 M64.4,46.1c-0.1,5.9,0,11.7,0,17.6
		c12.4,7.7,25,15.2,37.6,22.8c4.6-2.6,9-5.5,13.7-8c0-0.4-0.1-1.3-0.1-1.7C98.3,66.8,81.6,56.1,64.4,46.1 M106.4,89.3
		c4.1,2.2,8,5,12.3,6.9c0.1-4.8,0.1-9.5,0-14.2C114.5,84.3,110.4,86.8,106.4,89.3 M67.2,113.2c4.3,3.3,8.9,6.3,13.9,8.5
		c2.7-0.5,4.8-2.2,7.1-3.5c9.2-5.9,19-11.1,28-17.3c-4.5-3.2-9.3-6-14.2-8.6C90.2,98.9,78.7,106.1,67.2,113.2 M64.6,118
		c0,4.7,0,9.4,0,14c4.2-1.8,8-4.2,11.7-7C72.7,122.2,68.8,119.8,64.6,118 M67.2,136.8c11.5,7.1,23,14.3,34.8,21
		c4.9-2.6,9.7-5.4,14.2-8.6c-9-6.2-18.8-11.4-28-17.3c-2.3-1.3-4.5-3.1-7.1-3.5C76.1,130.5,71.5,133.5,67.2,136.8 M106.9,160.8
		c3.8,2.6,7.7,5,11.7,7.2c0.1-4.7,0.1-9.5,0-14.2C114.5,155.6,110.6,158.1,106.9,160.8 M64.4,186.3c0,5.9-0.1,11.7,0,17.6
		c17.1-10,33.9-20.8,51.1-30.6c0-0.4,0.1-1.3,0.1-1.7c-4.6-2.5-9-5.4-13.7-8C89.4,171.1,76.9,178.6,64.4,186.3z"/>
	<path class="st1" d="M139.4,76.3c1.7-1.8,3.7,0.1,5.4,0.9c18,11,36.1,21.9,54.2,32.8c1.4,1,3.5,2,3.4,3.9c0.1,7.4,0.1,14.8,0,22.1
		c0.1,2-2,3-3.4,3.9c-15.6,9.4-31.1,18.9-46.8,28.2c-3.7,2.2-7.1,5-11.2,6.5c-2.5-0.7-2.3-3.6-2.4-5.7c0.1-6.4-0.1-12.7,0.1-19.1
		c0.3-3.5,4.3-4.6,6.8-6.4c10-6.3,20.4-11.9,30.1-18.6c-11-7.5-22.6-13.9-33.9-20.9c-1.5-0.9-3.1-2.2-3-4.1c-0.3-5.3,0-10.7-0.1-16
		C138.8,81.4,138.4,78.7,139.4,76.3 M143.5,82.1c-0.1,5.8,0,11.7,0,17.5c11.1,7,22.4,13.6,33.5,20.4c1.6,0.8,3.5,2.4,5.4,1.3
		c4.4-2.4,8.4-5.2,12.8-7.7c-2-1.7-4.1-3.1-6.4-4.3C173.6,100.3,158.7,90.9,143.5,82.1 M186.5,124.4c0,0.3-0.1,0.9-0.1,1.2
		c3.5,2.5,7.2,4.6,11.1,6.5c0.1-4.7,0.1-9.4,0-14.1C193.7,119.8,189.9,121.8,186.5,124.4 M175.1,131.1
		c-10.5,6.6-21.2,12.8-31.7,19.3c0,5.8,0,11.7,0,17.5c13.5-7.8,26.8-16.1,40.2-24.2c3.8-2.5,8.1-4.2,11.4-7.3
		c-4.7-2.7-9.1-6.2-14.1-8.2C178.8,128.7,177,130,175.1,131.1z"/>
</g>
</svg>
